assets/icons/functional/design/diamonds-four.svg

<svg width="32" height="32" viewBox="0 0 32 32" fill="none" xmlns="http://www.w3.org/2000/svg"><g id="Icon-DiamondsFour"><g clip-path="url(#clip0_8_1359)"><g id="size=md (32px)"><g id="DiamondsFour"><path id="Vector" d="M15.2883 3.70997L11.6998 7.29854C11.3093 7.68906 11.3093 8.32223 11.6998 8.71275L15.2857 12.2987C15.6762 12.6892 16.3094 12.6892 16.6999 12.2987L20.2885 8.7101C20.679 8.31958 20.679 7.68641 20.2885 7.29589L16.7026 3.70997C16.312 3.31945 15.6789 3.31945 15.2883 3.70997Z" stroke="#101828" stroke-width="2" stroke-linecap="round" stroke-linejoin="round"/><path id="Vector_2" d="M23.2896 11.71L19.701 15.2985C19.3105 15.6891 19.3105 16.3222 19.701 16.7128L23.2869 20.2987C23.6774 20.6892 24.3106 20.6892 24.7011 20.2987L28.2897 16.7101C28.6802 16.3196 28.6802 15.6864 28.2897 15.2959L24.7038 11.71C24.3133 11.3194 23.6801 11.3194 23.2896 11.71Z" stroke="#101828" stroke-width="2" stroke-linecap="round" stroke-linejoin="round"/><path id="Vector_3" d="M7.28835 11.6987L3.69978 15.2872C3.30926 15.6778 3.30926 16.3109 3.69978 16.7015L7.2857 20.2874C7.67622 20.6779 8.30939 20.6779 8.69991 20.2874L12.2885 16.6988C12.679 16.3083 12.679 15.6751 12.2885 15.2846L8.70256 11.6987C8.31204 11.3082 7.67887 11.3082 7.28835 11.6987Z" stroke="#101828" stroke-width="2" stroke-linecap="round" stroke-linejoin="round"/><path id="Vector_4" d="M15.2896 19.6987L11.701 23.2872C11.3105 23.6778 11.3105 24.3109 11.701 24.7015L15.2869 28.2874C15.6774 28.6779 16.3106 28.6779 16.7011 28.2874L20.2897 24.6988C20.6802 24.3083 20.6802 23.6751 20.2897 23.2846L16.7038 19.6987C16.3133 19.3082 15.6801 19.3082 15.2896 19.6987Z" stroke="#101828" stroke-width="2" stroke-linecap="round" stroke-linejoin="round"/></g></g></g></g><defs><clipPath id="clip0_8_1359"><rect width="32" height="32" rx="5" fill="white"/></clipPath></defs></svg>

<svg xmlns="http://www.w3.org/2000/svg" width="32" height="32" fill="none"><path stroke="#101828" stroke-linecap="round" stroke-linejoin="round" stroke-width="2" d="M15.288 3.71 11.7 7.299a1 1 0 0 0 0 1.414l3.586 3.586a1 1 0 0 0 1.414 0l3.588-3.589a1 1 0 0 0 0-1.414L16.703 3.71a1 1 0 0 0-1.415 0Zm8.002 8-3.59 3.588a1 1 0 0 0 0 1.415l3.586 3.586a1 1 0 0 0 1.414 0l3.589-3.589a1 1 0 0 0 0-1.414l-3.586-3.586a1 1 0 0 0-1.414 0Zm-16.002-.011L3.7 15.287a1 1 0 0 0 0 1.414l3.586 3.586a1 1 0 0 0 1.414 0l3.589-3.588a1 1 0 0 0 0-1.414l-3.586-3.586a1 1 0 0 0-1.415 0Zm8.002 8-3.59 3.588a1 1 0 0 0 0 1.415l3.586 3.585a1 1 0 0 0 1.414 0l3.59-3.587a1 1 0 0 0 0-1.414L16.704 19.7a1 1 0 0 0-1.414 0Z"/></svg>
